images/under/underfooter-dark.svg

<svg width="62" height="97" viewBox="0 0 62 97" fill="none" xmlns="http://www.w3.org/2000/svg">
<g clip-path="url(#clip0_4139_382)">
<path d="M0.540039 70.5142V26.3931H15.2611V66.2992C15.2611 70.5037 16.183 74.5177 18.5156 77.4906C20.8646 80.4844 24.5881 82.3512 30.0265 82.3512C35.1437 82.3512 39.3191 80.8688 42.218 78.0878C45.1196 75.3042 46.6842 71.2751 46.6842 66.2992V26.3931H61.4053V93.7056H46.6842V75.354H45.5491C44.0372 82.6147 41.1342 87.6615 37.24 90.8958C33.347 94.1292 28.4107 95.5951 22.7482 95.5951C14.6435 95.5951 9.12477 92.9159 5.61737 88.4987C2.0938 84.061 0.540039 77.7944 0.540039 70.5142Z" stroke="white"/>
<path d="M0.5 0.5H61.5V15.2009H0.5V0.5Z" stroke="white"/>
</g>
<defs>
<clipPath id="clip0_4139_382">
<rect width="62" height="97" fill="white"/>
</clipPath>
</defs>
</svg>

<?xml version="1.0" encoding="UTF-8"?>
<svg id="_Слой_1" data-name="Слой_1" xmlns="http://www.w3.org/2000/svg" xmlns:xlink="http://www.w3.org/1999/xlink" version="1.1" viewBox="0 0 62 97">
  <!-- Generator: Adobe Illustrator 29.1.0, SVG Export Plug-In . SVG Version: 2.1.0 Build 142)  -->
  <defs>
    <style>
      .st0, .st1 {
        fill: none;
      }

      .st2 {
        clip-path: url(#clippath);
      }

      .st1 {
        stroke: #fff;
      }
    </style>
    <clipPath id="clippath">
      <rect class="st0" y="0" width="62" height="97"/>
    </clipPath>
  </defs>
  <g class="st2">
    <g>
      <path class="st1" d="M.5,70.5V26.4h14.7v39.9c0,4.2.9,8.2,3.3,11.2,2.3,3,6.1,4.9,11.5,4.9s9.3-1.5,12.2-4.3c2.9-2.8,4.5-6.8,4.5-11.8V26.4h14.7v67.3h-14.7v-18.7h-1.1v.4c-1.6,7.3-4.5,12.3-8.4,15.5-3.9,3.2-8.8,4.7-14.5,4.7-8.1,0-13.6-2.7-17.1-7.1-3.5-4.4-5.1-10.7-5.1-18Z"/>
      <path class="st1" d="M.5.5h61v14.7H.5V.5Z"/>
    </g>
  </g>
</svg>
